X: 11084
T: SAMMY'S HORNPIPE
C: Bob McQuillen 23 Nov.2000
B: Bob's Note Book 11 #84
R: hornpipe, reel
Z: 2020 John Chambers <jc:trillian.mit.edu>
M: C	# Actually, no time signature in book
L: 1/8
K: D
AB \
| d2de dAFA | defd Adef | g2ag fdgf | edcB cdef |
| d2fe dAFA | defg a2fd | efge ceag | f2d2 d2  :|
|: dc \
| B2GA BcdB | ABAF D2FA | B2GA Bded | c2A2 A2FA |
| B2GA BcdB | ABAF Adfa | gfed cBAG | F2D2 D2  :|
%%begintext align
%% Today
%% is Thanksgiving Day, and we all give
%% thanks to Steve and Bettie Zakon-Anderson
%% for their cute little boy, Sammy, who does
%% nothing except grin at the world and make
%% us all happy! He sure is a winner - Thanks, Folks!
%%endtext

%%sep 1 1 500

%%sep 1 1 500

